public/tools-icons/pnpm.svg

<svg xmlns="http://www.w3.org/2000/svg" width="24" height="24" fill="none" viewBox="0 0 24 24"><g clip-path="url(#a)"><path fill="#c8c2ff" d="M0 0v7.5h7.5V0zm8.25 0v7.5h7.498V0zm8.25 0v7.5H24V0zM8.25 8.25v7.5h7.498v-7.5zm8.25 0v7.5H24v-7.5zM0 16.5V24h7.5v-7.5zm8.25 0V24h7.498v-7.5zm8.25 0V24H24v-7.5z"/></g><defs><clipPath id="a"><path fill="#fff" d="M0 0h24v24H0z"/></clipPath></defs></svg>

<svg xmlns="http://www.w3.org/2000/svg" width="24" height="24" fill="none"><g clip-path="url(#clip0_140_91)"><path fill="#c8c2ff" d="M0 0V7.5H7.5V0H0ZM8.25 0V7.5H15.748V0H8.25ZM16.5 0V7.5H24V0H16.5ZM8.25 8.25V15.75H15.748V8.25H8.25ZM16.5 8.25V15.75H24V8.25H16.5ZM0 16.5V24H7.5V16.5H0ZM8.25 16.5V24H15.748V16.5H8.25ZM16.5 16.5V24H24V16.5H16.5Z"/></g><defs><clipPath id="clip0_140_91"><path fill="#fff" d="M0 0H24V24H0z"/></clipPath></defs></svg>
